icons/modus-outlined/visibility-off.svg

<svg xmlns="http://www.w3.org/2000/svg" width="24" height="24" fill="currentColor" viewBox="0 0 24 24">
  <path d="M15.5856 10.5355C15.5056 10.3955 14.9656 9.45547 13.8156 9.11547C13.3256 8.96547 12.8956 8.98547 12.6356 9.01547L12.4356 9.04547L15.9156 12.5255C15.9556 12.2755 16.0756 11.4255 15.5856 10.5455V10.5355ZM20.6656 9.13547C20.0256 8.51547 18.2656 6.94547 15.5256 6.28547C13.8956 5.89547 12.5256 5.97547 11.7956 6.05547C11.1456 6.12547 10.6056 6.24547 10.2156 6.34547L9.85556 6.44547L10.8756 7.46547C11.2856 7.27547 12.0256 6.98547 12.9856 6.98547C14.6056 6.98547 15.7156 7.78547 16.0356 8.02547C16.3456 8.26547 17.5656 9.26547 17.8956 11.0755C18.1656 12.5355 17.6856 13.6855 17.4956 14.0955L19.3456 15.9455C20.0056 15.4755 20.8256 14.7755 21.6056 13.7855C22.1156 13.1455 22.4856 12.5255 22.7656 11.9855C22.2211 10.9271 21.5123 9.96183 20.6656 9.12547V9.13547ZM5.45556 4.07547C5.26858 3.88849 5.01498 3.78345 4.75056 3.78345C4.48613 3.78345 4.23253 3.88849 4.04556 4.07547C3.85858 4.26245 3.75354 4.51604 3.75354 4.78047C3.75354 5.04489 3.85858 5.29849 4.04556 5.48547L6.61556 8.05547C6.06556 8.44547 5.40556 8.99547 4.74556 9.74547C4.01556 10.5655 3.52556 11.3655 3.19556 12.0055C3.62556 12.8355 4.42556 14.1455 5.83556 15.3555C6.69556 16.0855 8.39556 17.3255 10.8956 17.8055C13.2356 18.2555 15.1456 17.8255 16.1056 17.5355L18.79 20.2199C18.99 20.4199 19.24 20.5099 19.5 20.5099C19.76 20.5099 20.01 20.4099 20.21 20.2199C20.3027 20.1274 20.3763 20.0175 20.4264 19.8965C20.4766 19.7756 20.5024 19.6459 20.5024 19.5149C20.5024 19.3839 20.4766 19.2543 20.4264 19.1333C20.3763 19.0123 20.3027 18.9024 20.21 18.8099L5.45556 4.07547ZM12.9756 17.0055C10.5556 17.0055 9.09556 15.1555 8.99556 15.0255C8.80556 14.7755 7.86556 13.4955 7.98556 11.7055C8.03556 11.0355 8.20556 10.5055 8.35556 10.1655L8.46556 9.91547L10.0256 11.4755L10.0056 11.5955C10.0056 11.6555 9.98556 11.7455 9.98556 11.8455C9.98556 11.8455 9.96556 12.2055 10.0356 12.5555C10.2556 13.7355 11.2356 14.4355 11.2356 14.4355C12.2456 15.1555 13.3356 14.9855 13.5256 14.9455L15.0856 16.5055C14.6656 16.7055 13.9256 16.9855 12.9856 16.9855L12.9756 17.0055Z"/>
</svg>

<svg xmlns="http://www.w3.org/2000/svg" width="24" height="24" fill="currentColor" viewBox="0 0 24 24">
  <path d="M15.586 10.536c-.08-.14-.62-1.08-1.77-1.42-.49-.15-.92-.13-1.18-.1l-.2.03 3.48 3.48c.04-.25.16-1.1-.33-1.98zm5.08-1.4c-.64-.62-2.4-2.19-5.14-2.85-1.63-.39-3-.31-3.73-.23-.65.07-1.19.19-1.58.29l-.36.1 1.02 1.02c.41-.19 1.15-.48 2.11-.48 1.62 0 2.73.8 3.05 1.04.31.24 1.53 1.24 1.86 3.05.27 1.46-.21 2.61-.4 3.02l1.85 1.85c.66-.47 1.48-1.17 2.26-2.16.51-.64.88-1.26 1.16-1.8a11.3 11.3 0 0 0-2.1-2.86zm-15.21-5.06a.997.997 0 0 0-1.41 1.41l2.57 2.57c-.55.39-1.21.94-1.87 1.69-.73.82-1.22 1.62-1.55 2.26.43.83 1.23 2.14 2.64 3.35.86.73 2.56 1.97 5.06 2.45 2.34.45 4.25.02 5.21-.27l2.684 2.684c.2.2.45.29.71.29s.51-.1.71-.29a.994.994 0 0 0 0-1.41zm7.52 12.93c-2.42 0-3.88-1.85-3.98-1.98-.19-.25-1.13-1.53-1.01-3.32.05-.67.22-1.2.37-1.54l.11-.25 1.56 1.56-.02.12c0 .06-.02.15-.02.25 0 0-.02.36.05.71.22 1.18 1.2 1.88 1.2 1.88 1.01.72 2.1.55 2.29.51l1.56 1.56c-.42.2-1.16.48-2.1.48z"/>
</svg>
